symbols/web/yard/materialsymbolssharp/yard_fill1_48px.svg

<svg xmlns="http://www.w3.org/2000/svg" height="48" width="48"><path d="M24 39q4.85 0 8.325-3.475Q35.8 32.05 35.8 27.2q-4.85 0-8.325 3.475Q24 34.15 24 39Zm0 0q0-4.85-3.475-8.325Q17.05 27.2 12.2 27.2q0 4.85 3.475 8.325Q19.15 39 24 39Zm0-11q1.35 0 2.175-.825Q27 26.35 27 25v-.4q.4.35.9.45.5.1.95.1 1.35 0 2.175-.825.825-.825.825-2.175 0-1-.45-1.65-.45-.65-1.2-1.2.75-.3 1.2-1.075.45-.775.45-1.775 0-1.35-.825-2.175-.825-.825-2.175-.825-.45 0-.95.1-.5.1-.9.45v-.4q0-1.35-.825-2.175Q25.35 10.6 24 10.6q-1.35 0-2.175.825Q21 12.25 21 13.6v.4q-.4-.35-.9-.45-.5-.1-.95-.1-1.35 0-2.175.825-.825.825-.825 2.175 0 1 .425 1.675T17.8 19.3q-.8.35-1.225 1.1-.425.75-.425 1.75 0 1.35.825 2.175.825.825 2.175.825.45 0 .975-.1.525-.1.875-.45v.4q0 1.35.825 2.175Q22.65 28 24 28Zm0-4.8q-1.65 0-2.775-1.125T20.1 19.3q0-1.65 1.125-2.775T24 15.4q1.65 0 2.775 1.125T27.9 19.3q0 1.65-1.125 2.775T24 23.2ZM4 44V4h40v40Z"/></svg>

<svg xmlns="http://www.w3.org/2000/svg" height="48" width="48"><path d="M24 39Q28.85 39 32.325 35.525Q35.8 32.05 35.8 27.2Q30.95 27.2 27.475 30.675Q24 34.15 24 39ZM24 39Q24 34.15 20.525 30.675Q17.05 27.2 12.2 27.2Q12.2 32.05 15.675 35.525Q19.15 39 24 39ZM24 28Q25.35 28 26.175 27.175Q27 26.35 27 25V24.6Q27.4 24.95 27.9 25.05Q28.4 25.15 28.85 25.15Q30.2 25.15 31.025 24.325Q31.85 23.5 31.85 22.15Q31.85 21.15 31.4 20.5Q30.95 19.85 30.2 19.3Q30.95 19 31.4 18.225Q31.85 17.45 31.85 16.45Q31.85 15.1 31.025 14.275Q30.2 13.45 28.85 13.45Q28.4 13.45 27.9 13.55Q27.4 13.65 27 14V13.6Q27 12.25 26.175 11.425Q25.35 10.6 24 10.6Q22.65 10.6 21.825 11.425Q21 12.25 21 13.6V14Q20.6 13.65 20.1 13.55Q19.6 13.45 19.15 13.45Q17.8 13.45 16.975 14.275Q16.15 15.1 16.15 16.45Q16.15 17.45 16.575 18.125Q17 18.8 17.8 19.3Q17 19.65 16.575 20.4Q16.15 21.15 16.15 22.15Q16.15 23.5 16.975 24.325Q17.8 25.15 19.15 25.15Q19.6 25.15 20.125 25.05Q20.65 24.95 21 24.6V25Q21 26.35 21.825 27.175Q22.65 28 24 28ZM24 23.2Q22.35 23.2 21.225 22.075Q20.1 20.95 20.1 19.3Q20.1 17.65 21.225 16.525Q22.35 15.4 24 15.4Q25.65 15.4 26.775 16.525Q27.9 17.65 27.9 19.3Q27.9 20.95 26.775 22.075Q25.65 23.2 24 23.2ZM4 44V4H44V44Z"/></svg>
